assets/sonr-icons/mail-star.svg

<svg xmlns="http://www.w3.org/2000/svg" width="24" height="24" fill="none" viewBox="0 0 24 24"><path fill="#000" d="M18.538 15.31C18.709 14.899 19.29 14.899 19.461 15.31L20.251 17.208C20.322 17.38 20.484 17.498 20.67 17.514L22.544 17.677C22.973 17.715 23.157 18.241 22.846 18.537L21.422 19.891C21.293 20.014 21.239 20.196 21.28 20.37L21.761 22.385C21.865 22.818 21.394 23.16 21.014 22.928L19.262 21.858C19.102 21.76 18.901 21.76 18.741 21.858L16.989 22.928C16.609 23.16 16.139 22.818 16.242 22.385L16.723 20.37C16.764 20.197 16.71 20.015 16.582 19.892L15.163 18.538C14.852 18.241 15.036 17.715 15.465 17.678L17.333 17.515C17.518 17.499 17.68 17.381 17.752 17.209L18.542 15.311L18.54 15.312L18.538 15.31ZM6.17599 8.43403C6.48899 7.97903 7.11099 7.86303 7.56599 8.17503L11.435 10.828C11.776 11.062 12.225 11.062 12.567 10.828L16.436 8.17403C16.891 7.86103 17.514 7.97703 17.826 8.43303C18.138 8.88903 18.023 9.51103 17.567 9.82403L13.698 12.478C12.675 13.179 11.326 13.179 10.303 12.478L6.43499 9.82403C5.97999 9.51103 5.86299 8.89003 6.17599 8.43403Z"/><path fill="#000" d="M7.75899 4.00002H16.241C17.046 4.00002 17.71 4.00002 18.252 4.04402C18.814 4.09002 19.33 4.18902 19.816 4.43602C20.568 4.81902 21.18 5.43102 21.564 6.18402C21.811 6.66902 21.91 7.18602 21.955 7.74802C21.999 8.29002 21.999 8.95302 21.999 9.75902V12C21.999 12.552 21.551 13 20.999 13C20.447 13 19.999 12.552 19.999 12V9.80002C19.999 8.94402 19.998 8.36202 19.962 7.91102C19.926 7.47202 19.861 7.24902 19.781 7.09202C19.589 6.71502 19.283 6.40902 18.907 6.21802C18.75 6.13902 18.527 6.07302 18.088 6.03702C17.638 6.00002 17.055 6.00002 16.199 6.00002H7.79899C6.94199 6.00002 6.35999 6.00102 5.90999 6.03702C5.47099 6.07302 5.24799 6.13802 5.09099 6.21802C4.71399 6.41002 4.40799 6.71602 4.21699 7.09202C4.13799 7.24902 4.07199 7.47202 4.03599 7.91102C3.99899 8.36102 3.99899 8.94402 3.99899 9.80002V14.2C3.99899 15.056 3.99999 15.639 4.03599 16.089C4.07199 16.528 4.13699 16.751 4.21699 16.908C4.40899 17.285 4.71499 17.591 5.09099 17.782C5.24799 17.862 5.47099 17.927 5.90999 17.963C6.35999 18 6.94299 18 7.79899 18H11.999C12.551 18 12.999 18.448 12.999 19C12.999 19.552 12.551 20 11.999 20H7.75799C6.95299 20 6.28899 20 5.74699 19.956C5.18499 19.91 4.66799 19.811 4.18299 19.565C3.42999 19.182 2.81899 18.57 2.43499 17.817C2.18699 17.332 2.08899 16.815 2.04299 16.253C1.99899 15.711 1.99899 15.048 1.99899 14.242V9.75902C1.99899 8.95402 1.99899 8.29002 2.04299 7.74802C2.08899 7.18602 2.18799 6.66902 2.43499 6.18302C2.81799 5.43002 3.42999 4.81902 4.18299 4.43502C4.66799 4.18702 5.18499 4.08902 5.74699 4.04302C6.28899 3.99902 6.95199 3.99902 7.75799 3.99902L7.75699 4.00102L7.75899 4.00002Z"/></svg>

<svg xmlns="http://www.w3.org/2000/svg" width="24" height="24" fill="none"><path fill="currentColor" d="M18.538 15.31a.5.5 0 0 1 .923 0l.79 1.898a.5.5 0 0 0 .419.306l1.874.163a.5.5 0 0 1 .302.86l-1.424 1.354a.5.5 0 0 0-.142.479l.481 2.015a.5.5 0 0 1-.747.543l-1.752-1.07a.5.5 0 0 0-.521 0l-1.752 1.07a.5.5 0 0 1-.747-.543l.481-2.015a.5.5 0 0 0-.141-.478l-1.419-1.354a.5.5 0 0 1 .302-.86l1.868-.163a.5.5 0 0 0 .419-.306l.79-1.898-.002.001zM6.176 8.434a1 1 0 0 1 1.39-.259l3.869 2.653a1 1 0 0 0 1.132 0l3.869-2.654a1 1 0 0 1 1.131 1.65l-3.869 2.654a3 3 0 0 1-3.395 0L6.435 9.824a1 1 0 0 1-.259-1.39"/><path fill="currentColor" d="M7.759 4h8.482c.805 0 1.469 0 2.011.044.562.046 1.078.145 1.564.392a4 4 0 0 1 1.748 1.748c.247.485.346 1.002.391 1.564.044.542.044 1.205.044 2.011V12a1 1 0 0 1-2 0V9.8c0-.856-.001-1.438-.037-1.889-.036-.439-.101-.662-.181-.819a2 2 0 0 0-.874-.874c-.157-.079-.38-.145-.819-.181C17.638 6 17.055 6 16.199 6h-8.4c-.857 0-1.439.001-1.889.037-.439.036-.662.101-.819.181a2 2 0 0 0-.874.874c-.079.157-.145.38-.181.819-.037.45-.037 1.033-.037 1.889v4.4c0 .856.001 1.439.037 1.889.036.439.101.662.181.819.192.377.498.683.874.874.157.08.38.145.819.181C6.36 18 6.943 18 7.799 18h4.2a1 1 0 0 1 0 2H7.758c-.805 0-1.469 0-2.011-.044-.562-.046-1.079-.145-1.564-.391a4 4 0 0 1-1.748-1.748c-.248-.485-.346-1.002-.392-1.564-.044-.542-.044-1.205-.044-2.011V9.759c0-.805 0-1.469.044-2.011.046-.562.145-1.079.392-1.565a4 4 0 0 1 1.748-1.748c.485-.248 1.002-.346 1.564-.392.542-.044 1.205-.044 2.011-.044l-.001.002z"/></svg>
